X: 1
T: PRESIDENT GRANT'S -- HORNPIPE
C: Harry Carleton
B: Ryan's Mammoth Collection of Fiddle Tunes
R: hornpipe
M: 2/4
L: 1/16
Z: Contributed 20000427141046 by John Chambers jchambers:casc.com
K: Bb
(udc) \
| BFDF Bcde | fgfd B2(cd) | egbg fdBd | gfdB c2(dc) |
| BFDF Bcde | fgfd B2(cd) | egbg fdBd | c2B2B2 :|
|: (uba) \
| g^fga g=fde | fgfd f2(ba) | gabg fdBd | cdcB GFDC |
| v.B,(uF=EF) kvD(uBAB) | kF(d^cd) kB(f=ef) | gabg fdBd | c2B2B2 :|
